co/info_square_outline.svg

<svg viewBox="0 0 24 24" fill="none" xmlns="http://www.w3.org/2000/svg" height="1em" width="1em">
  <path d="M20 21H4C3.44772 21 3 20.5523 3 20V4C3 3.44772 3.44772 3 4 3H20C20.5523 3 21 3.44772 21 4V20C21 20.5523 20.5523 21 20 21ZM5 5V19H19V5H5ZM14 17H11V13H10V11H13V15H14V17ZM13 9H11V7H13V9Z" fill="black"/>
</svg>

<svg viewBox="0 0 24 24" fill="none" xmlns="http://www.w3.org/2000/svg" height="1em" width="1em">
  <path d="M20 21H4a1 1 0 0 1-1-1V4a1 1 0 0 1 1-1h16a1 1 0 0 1 1 1v16a1 1 0 0 1-1 1ZM5 5v14h14V5H5Zm9 12h-3v-4h-1v-2h3v4h1v2Zm-1-8h-2V7h2v2Z" fill="#000"/>
</svg>
